assets/icons/dark/icon-app.svg

<svg width="40" height="40" viewBox="0 0 40 40" fill="none" xmlns="http://www.w3.org/2000/svg">
<path opacity="0.05" fill-rule="evenodd" clip-rule="evenodd" d="M12 1C10.8954 1 10 1.89543 10 3V37C10 38.1046 10.8954 39 12 39H27.9C29.0046 39 29.9 38.1046 29.9 37V3C29.9 1.89543 29.0046 1 27.9 1H24.6631V2H15.2368V1H12Z" fill="#0D86FF"/>
<path d="M17.5089 35.6745C17.1354 35.6745 16.8326 35.9773 16.8326 36.3508C16.8326 36.7243 17.1354 37.0271 17.5089 37.0271V35.6745ZM22.4637 37.0271C22.8372 37.0271 23.14 36.7243 23.14 36.3508C23.14 35.9773 22.8372 35.6745 22.4637 35.6745V37.0271ZM9.40039 29.4141C9.40039 29.7876 9.70319 30.0904 10.0767 30.0904C10.4502 30.0904 10.753 29.7876 10.753 29.4141H9.40039ZM10.753 32.387C10.753 32.0134 10.4502 31.7106 10.0767 31.7106C9.70319 31.7106 9.40039 32.0134 9.40039 32.387H10.753ZM29.2195 7.61303C29.2195 7.98656 29.5223 8.28936 29.8959 8.28936C30.2694 8.28936 30.5722 7.98656 30.5722 7.61303H29.2195ZM30.5722 10.5859C30.5722 10.2124 30.2694 9.90956 29.8959 9.90956C29.5223 9.90956 29.2195 10.2124 29.2195 10.5859H30.5722ZM27.4804 38.6473H12.4922V40H27.4804V38.6473ZM12.4922 1.35266H15.527V0H12.4922V1.35266ZM14.8507 1.69206H16.2033V0.676328H14.8507V1.69206ZM16.4932 3.33457H23.4794V1.98191H16.4932V3.33457ZM15.527 1.35266H24.4456V0H15.527V1.35266ZM24.4456 1.35266H27.4804V0H24.4456V1.35266ZM25.1219 1.69206V0.676328H23.7693V1.69206H25.1219ZM17.5089 37.0271H22.4637V35.6745H17.5089V37.0271ZM10.753 29.4141V3.09179H9.40039V29.4141H10.753ZM10.753 36.9082V32.387H9.40039V36.9082H10.753ZM29.2195 3.09179V7.61303H30.5722V3.09179H29.2195ZM29.2195 10.5859V36.9082H30.5722V10.5859H29.2195ZM23.4794 3.33457C24.3866 3.33457 25.1219 2.5992 25.1219 1.69206H23.7693C23.7693 1.85214 23.6395 1.98191 23.4794 1.98191V3.33457ZM12.4922 38.6473C11.5317 38.6473 10.753 37.8687 10.753 36.9082H9.40039C9.40039 38.6157 10.7846 40 12.4922 40V38.6473ZM27.4804 40C29.1879 40 30.5722 38.6157 30.5722 36.9082H29.2195C29.2195 37.8687 28.4409 38.6473 27.4804 38.6473V40ZM27.4804 1.35266C28.4409 1.35266 29.2195 2.13129 29.2195 3.09179H30.5722C30.5722 1.38424 29.1879 0 27.4804 0V1.35266ZM14.8507 1.69206C14.8507 2.5992 15.586 3.33457 16.4932 3.33457V1.98191C16.3331 1.98191 16.2033 1.85214 16.2033 1.69206H14.8507ZM12.4922 0C10.7846 0 9.40039 1.38424 9.40039 3.09179H10.753C10.753 2.13129 11.5317 1.35266 12.4922 1.35266V0Z" fill="#0D86FF"/>
</svg>

<?xml version="1.0" encoding="utf-8"?>
<!-- Generator: Adobe Illustrator 24.2.3, SVG Export Plug-In . SVG Version: 6.00 Build 0)  -->
<svg version="1.1" id="Capa_1" xmlns="http://www.w3.org/2000/svg" xmlns:xlink="http://www.w3.org/1999/xlink" x="0px" y="0px"
	 viewBox="0 0 40 40" style="enable-background:new 0 0 40 40;" xml:space="preserve">
<style type="text/css">
	.st0{opacity:5.000000e-02;fill-rule:evenodd;clip-rule:evenodd;fill:#1DA1F2;enable-background:new    ;}
	.st1{fill:#1DA1F2;}
</style>
<path class="st0" d="M12,1c-1.1,0-2,0.9-2,2v34c0,1.1,0.9,2,2,2h15.9c1.1,0,2-0.9,2-2V3c0-1.1-0.9-2-2-2h-3.2v1h-9.4V1H12z"/>
<path class="st1" d="M17.5,35.7c-0.4,0-0.7,0.3-0.7,0.7s0.3,0.7,0.7,0.7V35.7z M22.5,37c0.4,0,0.7-0.3,0.7-0.7s-0.3-0.7-0.7-0.7V37z
	 M9.4,29.4c0,0.4,0.3,0.7,0.7,0.7c0.4,0,0.7-0.3,0.7-0.7H9.4z M10.8,32.4c0-0.4-0.3-0.7-0.7-0.7c-0.4,0-0.7,0.3-0.7,0.7H10.8z
	 M29.2,7.6c0,0.4,0.3,0.7,0.7,0.7c0.4,0,0.7-0.3,0.7-0.7H29.2z M30.6,10.6c0-0.4-0.3-0.7-0.7-0.7c-0.4,0-0.7,0.3-0.7,0.7H30.6z
	 M27.5,38.6h-15V40h15V38.6z M12.5,1.4h3V0h-3V1.4z M14.9,1.7h1.4v-1h-1.4V1.7z M16.5,3.3h7V2h-7V3.3z M15.5,1.4h8.9V0h-8.9V1.4z
	 M24.4,1.4h3V0h-3V1.4z M25.1,1.7v-1h-1.4v1H25.1z M17.5,37h5v-1.4h-5V37z M10.8,29.4V3.1H9.4v26.3H10.8z M10.8,36.9v-4.5H9.4v4.5
	H10.8z M29.2,3.1v4.5h1.4V3.1H29.2z M29.2,10.6v26.3h1.4V10.6H29.2z M23.5,3.3c0.9,0,1.6-0.7,1.6-1.6h-1.4c0,0.2-0.1,0.3-0.3,0.3
	V3.3z M12.5,38.6c-1,0-1.7-0.8-1.7-1.7H9.4c0,1.7,1.4,3.1,3.1,3.1V38.6z M27.5,40c1.7,0,3.1-1.4,3.1-3.1h-1.4c0,1-0.8,1.7-1.7,1.7
	V40z M27.5,1.4c1,0,1.7,0.8,1.7,1.7h1.4c0-1.7-1.4-3.1-3.1-3.1V1.4z M14.9,1.7c0,0.9,0.7,1.6,1.6,1.6V2c-0.2,0-0.3-0.1-0.3-0.3H14.9
	z M12.5,0c-1.7,0-3.1,1.4-3.1,3.1h1.4c0-1,0.8-1.7,1.7-1.7V0z"/>
</svg>
